X:304
T: Der Fisch(?) Concelebrant (4-5), S. 7
N: P0566
O: Lothringen
S: PINCK, Louis: Verklingende Weisen Bd 4, Kassel 1939]
R: geistliches, religises Lied]
M: 3/4
L: 1/16
K: F
C4 | F4F4G4 | A4F4c2c2 | =B4c4d4 | c8
c4 | G4A4=B4 | c8A2B2 | c4c4d4 | c6B2
A4 | B4A4G4 | A4G4
F4 | G8c3B | A8G4 | F8

@@@ Tune index: 7854
